src/assets/duotone/MusicCircle.svg

<?xml version="1.0" encoding="UTF-8"?>
<svg width="24" height="24" viewBox="0 0 24 24" xmlns="http://www.w3.org/2000/svg">
 <path d="m2.5801 9.42c-0.08 0-0.17-0.00998-0.25-0.03998-0.39-0.14-0.58999-0.57002-0.45999-0.96002 0.67-1.88 1.83-3.53 3.38-4.78 0.32-0.26 0.78999-0.21002 1.05 0.10998s0.21002 0.79-0.10998 1.06c-1.33 1.07-2.33 2.49-2.9 4.11-0.11 0.31-0.40002 0.5-0.71002 0.5z" opacity=".4"/>
 <path d="m2.58 16.08c-0.31 0-0.59999-0.19-0.70999-0.5-0.41-1.17-0.62-2.37-0.62-3.58 0-0.41 0.34-0.75 0.75-0.75s0.75 0.34 0.75 0.75c0 1.04 0.18001 2.08 0.54001 3.08 0.14 0.39-0.07002 0.82-0.46002 0.96-0.08 0.03-0.17 0.04-0.25 0.04z" opacity=".4"/>
 <path d="m12 22.75c-1.06 0-2.11-0.16-3.13-0.47-0.4-0.12-0.62-0.54-0.5-0.94s0.54-0.62 0.94-0.5c0.86999 0.27 1.78 0.3999 2.69 0.3999 5.1 0 9.25-4.15 9.25-9.25 0-0.52-0.05-1.06-0.15-1.63-0.07-0.40996 0.2-0.79996 0.61-0.86996 0.4-0.07 0.8 0.19999 0.87 0.60996 0.12 0.66 0.18 1.2801 0.18 1.9001-0.01 5.93-4.83 10.75-10.76 10.75z" opacity=".4"/>
 <path d="m5.7202 20.5c-0.17 0-0.33-0.05-0.47-0.17-0.57-0.46-1.03-0.9001-1.42-1.3501-0.27-0.31-0.22999-0.79 0.08001-1.06 0.32-0.27 0.79-0.2299 1.06 0.0801 0.33 0.38 0.73 0.7599 1.22 1.1599 0.32 0.26 0.36999 0.7301 0.10999 1.0501-0.14 0.19-0.35999 0.29-0.57999 0.29z" opacity=".4"/>
 <path d="m20.24 7.09c-0.24 0-0.47-0.11002-0.62-0.33002-1.73-2.52-4.58-4.02-7.62-4.02-0.91 0-1.82 0.13002-2.69 0.40002-0.39 0.12-0.81-0.1-0.94-0.5s0.1-0.82 0.5-0.94c1.02-0.31 2.07-0.47003 3.13-0.47003 3.54 0 6.85 1.75 8.86 4.67 0.23 0.34 0.15 0.80998-0.19 1.04-0.13 0.11-0.28 0.15003-0.43 0.15003z" opacity=".4"/>
 <path d="m16.03 6.5c-0.33-0.25-0.93-0.49999-1.89-0.23999l-3.19 0.85999c-0.92 0.26-1.52 1.04-1.52 2v4.22c-0.26-0.1-0.53999-0.16-0.83999-0.16-1.29 0-2.34 1.05-2.34 2.34s1.05 2.34 2.34 2.34c1.28 0 2.31-1.03 2.33-2.3 0-0.01 0.01-0.02 0.01-0.04v-4.19l4.32-1.18v2.13c-0.26-0.1-0.54-0.16-0.84-0.16-1.29 0-2.34 1.05-2.34 2.34s1.05 2.34 2.34 2.34 2.34-1.05 2.34-2.34v-6.21c0-0.8-0.24-1.39-0.72-1.75zm-7.44 9.86c-0.46 0-0.84-0.38-0.84-0.84s0.38-0.84 0.84-0.84 0.83999 0.38 0.83999 0.84-0.37999 0.84-0.83999 0.84zm5.82-1.06c-0.46 0-0.84-0.38-0.84-0.84s0.38-0.84 0.84-0.84 0.84 0.38 0.84 0.84-0.38 0.84-0.84 0.84z"/>
</svg>

<svg width="24" height="24" viewBox="0 0 24 24"  xmlns="http://www.w3.org/2000/svg">
<path opacity="0.4" d="M2.58011 9.41999C2.50011 9.41999 2.41011 9.41001 2.33011 9.38001C1.94011 9.24001 1.74012 8.80999 1.87012 8.41999C2.54012 6.53999 3.70012 4.89002 5.25012 3.64002C5.57012 3.38002 6.04011 3.43 6.30011 3.75C6.56011 4.07 6.51013 4.54 6.19013 4.81C4.86013 5.88 3.86013 7.29999 3.29013 8.91999C3.18013 9.22999 2.89011 9.41999 2.58011 9.41999Z" />
<path opacity="0.4" d="M2.57999 16.08C2.26999 16.08 1.98 15.89 1.87 15.58C1.46 14.41 1.25 13.21 1.25 12C1.25 11.59 1.59 11.25 2 11.25C2.41 11.25 2.75 11.59 2.75 12C2.75 13.04 2.93001 14.08 3.29001 15.08C3.43001 15.47 3.21999 15.9 2.82999 16.04C2.74999 16.07 2.65999 16.08 2.57999 16.08Z" />
<path opacity="0.4" d="M12.0001 22.7501C10.9401 22.7501 9.89011 22.5901 8.87011 22.2801C8.47011 22.1601 8.25011 21.7401 8.37011 21.3401C8.49011 20.9401 8.91011 20.7201 9.31011 20.8401C10.1801 21.1101 11.0901 21.24 12.0001 21.24C17.1001 21.24 21.2501 17.09 21.2501 11.99C21.2501 11.47 21.2001 10.93 21.1001 10.36C21.0301 9.95004 21.3001 9.56004 21.7101 9.49004C22.1101 9.42004 22.5101 9.69003 22.5801 10.1C22.7001 10.76 22.7601 11.3801 22.7601 12.0001C22.7501 17.9301 17.9301 22.7501 12.0001 22.7501Z" />
<path opacity="0.4" d="M5.72022 20.5001C5.55022 20.5001 5.39022 20.4501 5.25022 20.3301C4.68022 19.8701 4.22021 19.43 3.83021 18.98C3.56021 18.67 3.60022 18.19 3.91022 17.92C4.23022 17.65 4.70022 17.6901 4.97022 18.0001C5.30022 18.3801 5.70022 18.76 6.19022 19.16C6.51022 19.42 6.56021 19.8901 6.30021 20.2101C6.16021 20.4001 5.94022 20.5001 5.72022 20.5001Z" />
<path opacity="0.4" d="M20.2399 7.09003C19.9999 7.09003 19.7699 6.98001 19.6199 6.76001C17.8899 4.24001 15.0399 2.73999 11.9999 2.73999C11.0899 2.73999 10.1799 2.87001 9.30991 3.14001C8.91991 3.26001 8.49991 3.04001 8.36991 2.64001C8.23991 2.24001 8.46991 1.82001 8.86991 1.70001C9.88991 1.39001 10.9399 1.22998 11.9999 1.22998C15.5399 1.22998 18.8499 2.98002 20.8599 5.90002C21.0899 6.24002 21.0099 6.71 20.6699 6.94C20.5399 7.05 20.3899 7.09003 20.2399 7.09003Z" />
<path d="M16.03 6.49996C15.7 6.24996 15.1 5.99997 14.14 6.25997L10.95 7.11996C10.03 7.37996 9.42999 8.15996 9.42999 9.11996V10.76V13.34C9.16999 13.24 8.89 13.18 8.59 13.18C7.3 13.18 6.25 14.23 6.25 15.52C6.25 16.81 7.3 17.86 8.59 17.86C9.87 17.86 10.9 16.83 10.92 15.56C10.92 15.55 10.93 15.54 10.93 15.52V11.33L15.25 10.15V12.28C14.99 12.18 14.71 12.12 14.41 12.12C13.12 12.12 12.07 13.17 12.07 14.46C12.07 15.75 13.12 16.8 14.41 16.8C15.7 16.8 16.75 15.75 16.75 14.46V9.16995V8.24996C16.75 7.44996 16.51 6.85996 16.03 6.49996ZM8.59 16.36C8.13 16.36 7.75 15.98 7.75 15.52C7.75 15.06 8.13 14.68 8.59 14.68C9.05 14.68 9.42999 15.06 9.42999 15.52C9.42999 15.98 9.05 16.36 8.59 16.36ZM14.41 15.3C13.95 15.3 13.57 14.92 13.57 14.46C13.57 14 13.95 13.62 14.41 13.62C14.87 13.62 15.25 14 15.25 14.46C15.25 14.92 14.87 15.3 14.41 15.3Z" />
</svg>
